icon-themes/sifr_svg/cmd/sc_grafblue.svg

<svg viewBox="0 0 16 16" xmlns="http://www.w3.org/2000/svg"><path d="m6.4101562 3.6777344-3.0273442 2.5019531c-.260249.2030046-.382812.5203125-.367187.8203125h-.015625v3c0 .554-.446 1-1 1s-1-.446-1-1v-3c-.000494-.7434953.233705-1.07 1-1.4355469zm9.5898438 9.3222656v3h-16v-3z" fill="#0369a3"/><path d="m9 1v6a1 1 0 0 0 1 1 1 1 0 0 0 1-1v-6zm-1 1.3671875-4.615234 3.8125c-.424766.3327526-.512677.9489321-.184766 1.3828125l5.25 7.05c.3.433881.9.514393 1.3535156.181641l4.8183598-3.976563c.426585-.332752.5-.95.185547-1.3847654l-2.8074224-3.7648438v1.3320312c0 1.1-.907275 2-2 2-1.1 0-2-.9072751-2-2z" fill="#555753"/></svg>

<svg xmlns="http://www.w3.org/2000/svg" viewBox="0 0 16 16">
  <path
     style="fill:#0369a3"
     d="M 6.4101562,3.6777344 3.382812,6.1796875 C 3.122563,6.3826921 3,6.7 3.015625,7 H 3 L 3,10 C 3,10.554 2.554,11 2,11 1.446,11 1,10.554 1,10 L 1,7 c -4.94e-4,-0.7434953 0.233705,-1.07 1,-1.4355469 z M 16,13 v 3 H 0 v -3 z"
     />
  <path
     style="fill:#555753"
     d="m 9,1 v 6 a 1,1 0 0 0 1,1 1,1 0 0 0 1,-1 V 1 Z m -1,1.3671875 -4.615234,3.8125 C 2.96,6.5124401 2.872089,7.1286196 3.2,7.5625 l 5.25,7.05 c 0.3,0.433881 0.9,0.514393 1.3535156,0.181641 l 4.8183598,-3.976563 c 0.426585,-0.332752 0.5,-0.95 0.185547,-1.3847654 L 12,5.6679688 V 7 c 0,1.1 -0.907275,2 -2,2 -1.1,0 -2,-0.9072751 -2,-2 z"
     />
</svg>
